X: 5
T: The Boys Of The Town
R: jig
M: 6/8
L: 1/8
K: Gmaj
GFG GBd | edB dBA | GFG GBd | edB AFD |GFG GBd | edB gfg | edB AGA | BGG G2 :|def gfg | afd edB | def gfg | afd e2 d ||1 def gfg | afd efg | edB AGA | BGG G2 :||2 def gbb | faa efg | edB AGA | BGG G2 |]


Tune 1035	Setting 14259

